X: 555
T: Father John Angus Rankin's March
C: Jerry Holland
R: barndance
M: 4/4
L: 1/8
K: Amaj
|: AB |"F#m"c2 e2 e2 de |"E" f2 e2 e2 AB |"F#m" c2 e2 "A"ecAB |"E" c2 B2 B2 AB |
"F#m"c2 e2 e2 de | "E"f2 e2 e2 Ac | "A"def>d  "F#m"e>cd>B | "F#m"c2 A2 "A"A2 :|
|: fg |"A"a2 A2 fedc | "E"f2 e2 e2 fg | "A"a2 A2 fedc | "E"c2 B2 "F#m"B2 |
[1 fg | "A"a2 A2 fedc | "E"f2 e2 e2 Ac | "A"def>d "F#m"e>cd>B | "F#m"c2 A2 "A"A2 :|
[2 AB | "A"cAcd e2 ce | "E"fdfg a3 e | "A"def>d "F#m"e>cd>B | "F#m"c2 A2 "A"A2 |]


